X: 192
T: Peggy of the Green
%R: reel
B: Chas & Sam Thompson "Twenty Four Country Dances for the Year 1780", London 1780, p.92 #2
F: http://www.vwml.org/browse/browse-collections-dance-tune-books/browse-thompsons1780
Z: 2014 John Chambers <jc:trillian.mit.edu> (added dance description)
M: 2/4
L: 1/16
K: A
% - - - - - - - - - - - - - - - - - - - - - - - - - - - - -
(cd) |\
eAeA fAeA | dBcA B2E2 |\
eAeA fAeA | dBGB A2 :|
|: EF |\
GEGE dBdB | AEAE ecec |\
eAeA fAeA | dBGB A2 :|
% - - - - - - - - - - Dance description - - - - - - - - - -

